src/lib/packages/icons/src/assets/filled/user-viewfinder.svg

<svg xmlns="http://www.w3.org/2000/svg" width="24" height="24" fill="none"><path fill="currentColor" d="M2.25 8V4.5c0-1.409.841-2.25 2.25-2.25H8a.75.75 0 0 1 0 1.5H4.5c-.589 0-.75.161-.75.75V8a.75.75 0 0 1-1.5 0ZM19.5 2.25H16a.75.75 0 0 0 0 1.5h3.5c.589 0 .75.161.75.75V8a.75.75 0 0 0 1.5 0V4.5c0-1.409-.841-2.25-2.25-2.25ZM8 20.25H4.5c-.589 0-.75-.161-.75-.75V16a.75.75 0 0 0-1.5 0v3.5c0 1.409.841 2.25 2.25 2.25H8a.75.75 0 0 0 0-1.5Zm13-5a.75.75 0 0 0-.75.75v3.5c0 .589-.161.75-.75.75H16a.75.75 0 0 0 0 1.5h3.5c1.409 0 2.25-.841 2.25-2.25V16a.75.75 0 0 0-.75-.75Zm-8.994-4.083a2.837 2.837 0 0 0 2.834-2.833 2.837 2.837 0 0 0-2.834-2.833 2.836 2.836 0 0 0-2.833 2.833 2.836 2.836 0 0 0 2.833 2.833Zm4.661 4.845c0-1.326-.667-3.345-3.333-3.345h-2.667c-2.667 0-3.333 2-3.333 3.345 0 1.321.667 1.988 2.002 1.988h5.33c1.334 0 2.001-.667 2.001-1.988Z"/></svg>

<svg width="24" height="24" viewBox="0 0 24 24" fill="none" xmlns="http://www.w3.org/2000/svg">
<path d="M2.25 8V4.5C2.25 3.091 3.091 2.25 4.5 2.25H8C8.414 2.25 8.75 2.586 8.75 3C8.75 3.414 8.414 3.75 8 3.75H4.5C3.911 3.75 3.75 3.911 3.75 4.5V8C3.75 8.414 3.414 8.75 3 8.75C2.586 8.75 2.25 8.414 2.25 8ZM19.5 2.25H16C15.586 2.25 15.25 2.586 15.25 3C15.25 3.414 15.586 3.75 16 3.75H19.5C20.089 3.75 20.25 3.911 20.25 4.5V8C20.25 8.414 20.586 8.75 21 8.75C21.414 8.75 21.75 8.414 21.75 8V4.5C21.75 3.091 20.909 2.25 19.5 2.25ZM8 20.25H4.5C3.911 20.25 3.75 20.089 3.75 19.5V16C3.75 15.586 3.414 15.25 3 15.25C2.586 15.25 2.25 15.586 2.25 16V19.5C2.25 20.909 3.091 21.75 4.5 21.75H8C8.414 21.75 8.75 21.414 8.75 21C8.75 20.586 8.414 20.25 8 20.25ZM21 15.25C20.586 15.25 20.25 15.586 20.25 16V19.5C20.25 20.089 20.089 20.25 19.5 20.25H16C15.586 20.25 15.25 20.586 15.25 21C15.25 21.414 15.586 21.75 16 21.75H19.5C20.909 21.75 21.75 20.909 21.75 19.5V16C21.75 15.586 21.414 15.25 21 15.25ZM12.006 11.167C13.568 11.167 14.84 9.89598 14.84 8.33398C14.84 6.77198 13.569 5.50098 12.006 5.50098C10.443 5.50098 9.17297 6.77198 9.17297 8.33398C9.17297 9.89598 10.443 11.167 12.006 11.167ZM16.667 16.012C16.667 14.686 16 12.667 13.334 12.667C12.585 12.667 12.027 12.667 10.667 12.667C7.99999 12.667 7.33398 14.667 7.33398 16.012C7.33398 17.333 8.00106 18 9.33606 18H14.666C16 18 16.667 17.333 16.667 16.012Z" fill="currentColor"/>
</svg>
